assets/img/arm/microsoft.network/virtualhubs.svg

<svg xmlns="http://www.w3.org/2000/svg" width="50" height="50"   viewBox="0 0 49 49">
  <path d="M25.5229 30.5403H22.9966V44.5024H25.5229V30.5403Z" fill="#50E6FF"/>
  <path d="M25.5229 3.46655H22.9966V19.1634H25.5229V3.46655Z" fill="#50E6FF"/>
  <path d="M30.0195 26.7202L28.7563 28.908L41.533 36.2848L42.7962 34.097L30.0195 26.7202Z" fill="#50E6FF"/>
  <path d="M6.65818 13.2277L5.39502 15.4155L18.6384 23.0618L19.9016 20.8741L6.65818 13.2277Z" fill="#50E6FF"/>
  <path d="M41.6852 13.3341L28.6387 20.8667L29.9018 23.0545L42.9483 15.5219L41.6852 13.3341Z" fill="#50E6FF"/>
  <path d="M18.5495 26.6824L5.1748 34.4045L6.43796 36.5923L19.8126 28.8702L18.5495 26.6824Z" fill="#50E6FF"/>
  <path d="M24.2596 20.4603L28.0575 22.6498V27.0287L24.2596 29.2266L20.4702 27.0372V22.6582L24.2596 20.4603ZM24.2596 17.5466L22.9965 18.2793L19.207 20.4687L17.9438 21.2014V22.6582V27.0372V28.494L19.207 29.2266L23.0049 31.4161L24.2681 32.1487L25.5312 31.4161L29.3291 29.2266L30.5923 28.494V27.0372V22.6582V21.2014L29.3291 20.4687L25.5228 18.2793L24.2596 17.5466Z" fill="#0078D4"/>
  <path d="M20.4702 45.0918V45.0329C20.4702 42.9529 22.1544 41.2771 24.226 41.2771H24.285C26.365 41.2771 28.0407 42.9613 28.0407 45.0329V45.0918C28.0407 47.1718 26.3565 48.8476 24.285 48.8476H24.226C22.1544 48.8476 20.4702 47.1634 20.4702 45.0918Z" fill="#0078D4"/>
  <path d="M20.4702 4.67081V4.61187C20.4702 2.53187 22.1544 0.847656 24.2344 0.847656H24.2934C26.365 0.847656 28.0492 2.53187 28.0492 4.61187V4.67081C28.0492 6.74239 26.365 8.4266 24.2934 8.4266H24.2344C22.1544 8.4266 20.4702 6.74239 20.4702 4.67081Z" fill="#0078D4"/>
  <path d="M40.1082 38.254L40.0576 38.2203C38.2555 37.1846 37.6408 34.8856 38.685 33.0835L38.7187 33.033C39.7545 31.2309 42.0534 30.6161 43.8555 31.6603L43.9061 31.694C45.7082 32.7298 46.3229 35.0288 45.2787 36.8309L45.245 36.8814C44.2008 38.6751 41.9019 39.2898 40.1082 38.254Z" fill="#0078D4"/>
  <path d="M6.61747 18.532H6.55852C4.47852 18.532 2.80273 16.8477 2.80273 14.7762V14.7172C2.80273 12.6372 4.48695 10.9614 6.55852 10.9614H6.61747C8.69747 10.9614 10.3733 12.6456 10.3733 14.7172V14.7762C10.3817 16.8477 8.69747 18.532 6.61747 18.532Z" fill="#0078D4"/>
  <path d="M43.8892 18.0099L43.8387 18.0436C42.0366 19.0794 39.7377 18.4647 38.7019 16.671L38.6682 16.6205C37.6324 14.8184 38.2471 12.5194 40.0408 11.4836L40.0914 11.4499C41.8935 10.4141 44.1924 11.0289 45.2282 12.8226L45.2619 12.8731C46.2977 14.6752 45.6829 16.9741 43.8892 18.0099Z" fill="#0078D4"/>
  <path d="M6.61747 38.7424H6.55852C4.47852 38.7424 2.80273 37.0582 2.80273 34.9866V34.9277C2.80273 32.8477 4.48695 31.1719 6.55852 31.1719H6.61747C8.69747 31.1719 10.3733 32.8561 10.3733 34.9277V34.9866C10.3817 37.0582 8.69747 38.7424 6.61747 38.7424Z" fill="#0078D4"/>
</svg>

<svg xmlns="http://www.w3.org/2000/svg" width="50" height="50" viewBox="0 0 49 49">
    <path d="M25.523 30.54h-2.526v13.962h2.526V30.54zm0-27.073h-2.526v15.696h2.526V3.467zM30.02 26.72l-1.264 2.188 12.777 7.377 1.263-2.188L30.02 26.72zM6.658 13.228l-1.263 2.188 13.243 7.646 1.264-2.188-13.244-7.646zm35.027.106L28.64 20.867l1.263 2.188 13.046-7.533-1.263-2.188zM18.55 26.682L5.174 34.405l1.263 2.187 13.375-7.722-1.264-2.188z" fill="#50E6FF"/>
    <path d="M24.26 20.46l3.797 2.19v4.379l-3.797 2.198-3.79-2.19v-4.379l3.79-2.198zm0-2.913l-1.264.732-3.789 2.19-1.263.732v7.293l1.263.733 3.798 2.19 1.263.732 1.263-.733 3.798-2.19 1.263-.732v-7.293l-1.263-.732-3.806-2.19-1.263-.732zm-3.79 27.545v-.06a3.754 3.754 0 013.756-3.755h.059a3.754 3.754 0 013.756 3.756v.059a3.754 3.754 0 01-3.756 3.756h-.059a3.76 3.76 0 01-3.756-3.756zm0-40.422v-.058A3.763 3.763 0 0124.234.848h.06a3.761 3.761 0 013.755 3.764v.059a3.76 3.76 0 01-3.756 3.756h-.059A3.761 3.761 0 0120.47 4.67zm19.638 33.584l-.05-.034a3.75 3.75 0 01-1.373-5.136l.034-.051a3.75 3.75 0 015.136-1.373l.051.034a3.75 3.75 0 011.373 5.137l-.034.05a3.768 3.768 0 01-5.137 1.373zM6.617 18.532H6.56a3.754 3.754 0 01-3.756-3.756v-.059a3.754 3.754 0 013.756-3.756h.058a3.754 3.754 0 013.756 3.756v.06a3.749 3.749 0 01-3.756 3.755zm37.273-.522l-.051.034a3.764 3.764 0 01-5.137-1.373l-.034-.05a3.764 3.764 0 011.373-5.137l.05-.034a3.764 3.764 0 015.137 1.373l.034.05a3.764 3.764 0 01-1.373 5.137zM6.617 38.742H6.56a3.754 3.754 0 01-3.756-3.755v-.06a3.754 3.754 0 013.756-3.755h.058a3.754 3.754 0 013.756 3.756v.059a3.749 3.749 0 01-3.756 3.755z" fill="#0078D4"/>
</svg>
